X:292
T:Pile of Bricks
Z: id:dc-reel-272
M:C
L:1/8
K:G Major
GE|DGGF GABd|eged edBA|G2BG dGBG|ABAG FDD2|!
DGGF GABd|eged efga|bggb ageg|dBAB G2:|!
Bc|dggf g2ga|bgag edBA|G2BG dGBG|ABAG FDD2|!
[1 dggf g2ga|bgag edBA|G2BG dGBG|AGFA G2:|!
[2 dgg2 bgg2|agfa gedB|G2BG dGBG|AGFA G2|]!

